X: 2292
M: 6/8
L: 1/8
K: G	% and Em and D
|:\
vG2vA uB2uG | A2G FGA | B2E EFE | B2E EFE |\
d2d dAF | DFA dAF | G2E EFE | G2E EFE |
d^cd edc | d^cB ABA | F2D DED | F2D DED ::\
g2g gag | f2f fgf | e2e e2g | bge e2f |\
gfg agf | edc BAG | F2D DED | F2D DED :|


